packages/gatsby-plugin-orion-core/src/assets/logo.svg

<?xml version="1.0" encoding="UTF-8"?>
<svg width="137px" height="51px" viewBox="0 0 137 51" version="1.1" xmlns="http://www.w3.org/2000/svg" xmlns:xlink="http://www.w3.org/1999/xlink">
    <!-- Generator: Sketch 63.1 (92452) - https://sketch.com -->
    <title>Logo@1.5x</title>
    <desc>Created with Sketch.</desc>
    <g id="Logo" stroke="none" stroke-width="1" fill="none" fill-rule="evenodd">
        <rect x="0" y="0" width="137" height="51"></rect>
        <g id="logo" transform="translate(18.000000, 13.000000)" fill="#FFFFFF" fill-rule="nonzero">
            <path d="M30.444,19 L31.692,14.824 L37.476,14.824 L38.748,19 L42.924,19 L37.716,3.232 C37.404,2.344 37.212,2.128 36.348,2.128 L33.108,2.128 C32.22,2.128 32.052,2.32 31.74,3.232 L26.532,19 L30.444,19 Z M36.612,11.896 L32.556,11.896 L34.428,5.656 L34.74,5.656 L36.612,11.896 Z M52.716,19 C53.988,19 54.612,18.76 55.116,18.232 C55.812,17.512 56.004,16.576 56.004,13.96 L52.596,13.96 C52.572,15.352 52.524,15.736 52.38,15.88 C52.212,16.048 51.996,16.096 51.492,16.096 L49.38,16.096 C48.756,16.096 48.564,16.048 48.42,15.856 C48.2341935,15.6701935 48.1158169,15.2596212 48.108373,12.6666448 L48.108,12.4 C48.108,9.568 48.228,9.136 48.42,8.92 C48.564,8.752 48.756,8.704 49.38,8.704 L51.468,8.704 C51.996,8.704 52.188,8.752 52.332,8.92 C52.452,9.04 52.524,9.304 52.572,10.648 L55.98,10.648 C56.004,8.224 55.788,7.24 55.092,6.544 C54.588,6.016 53.988,5.8 52.692,5.8 L48.276,5.8 C46.932,5.8 46.212,6.016 45.66,6.592 C44.8221818,7.45309091 44.4808485,8.58499174 44.460931,12.0666473 L44.46,12.4 C44.46,16.12 44.796,17.32 45.66,18.184 C46.236,18.784 46.932,19 48.276,19 L52.716,19 Z M62.388,19 L62.388,9.256 C63.228,8.896 63.828,8.704 64.428,8.704 L65.028,8.704 C65.676,8.704 65.916,8.8 66.132,9.016 C66.324,9.208 66.42,9.52 66.42,10.096 L66.42,19 L70.092,19 L70.092,9.232 C70.908,8.848 71.484,8.704 72.084,8.704 L72.684,8.704 C73.332,8.704 73.572,8.8 73.788,9.016 C73.98,9.208 74.076,9.52 74.076,10.096 L74.076,19 L77.796,19 L77.796,9.688 C77.796,7.744 77.58,7.048 77.028,6.52 C76.524,6.016 75.804,5.776 74.676,5.776 L73.548,5.776 C72.3,5.776 71.748,6.04 69.948,7.696 C69.828,7.144 69.612,6.808 69.324,6.52 C68.82,6.016 68.1,5.776 66.972,5.776 L65.844,5.776 C64.62,5.776 64.092,6.016 62.388,7.552 L62.388,5.8 L58.716,5.8 L58.716,19 L62.388,19 Z M89.316,19 C90.732,19 91.26,18.64 91.668,18.232 C92.316,17.584 92.532,16.576 92.556,14.608 L89.172,14.608 C89.148,15.544 89.1,15.904 88.98,16.048 C88.836,16.216 88.644,16.288 87.9,16.288 L85.668,16.288 C85.044,16.288 84.66,16.24 84.492,16.048 C84.348,15.88 84.204,15.328 84.18,13.24 L92.028,13.24 C92.46,13.24 92.556,13.096 92.556,12.712 L92.556,12.28 C92.556,8.488 92.364,7.456 91.5,6.592 C90.948,6.016 90.228,5.8 88.884,5.8 L84.42,5.8 C83.076,5.8 82.356,6.016 81.804,6.592 C80.9654118,7.45388235 80.6242215,8.45141869 80.6048769,12.0642839 L80.604,12.4 C80.604,16.288 80.94,17.32 81.804,18.184 C82.38,18.784 83.076,19 84.42,19 L89.316,19 Z M89.052,11.176 L84.18,11.176 C84.204,9.328 84.324,8.92 84.492,8.752 C84.66,8.56 85.044,8.512 85.668,8.512 L87.66,8.512 C88.404,8.512 88.62,8.584 88.764,8.728 C88.932,8.92 89.052,9.4 89.052,11.176 Z" id="Acme"></path>
            <path d="M18.6039484,9.67728049 L10.7589451,9.67728049 L12.2654834,0.46953576 C12.2951708,0.288485732 12.2013585,0.11025831 12.0370881,0.0352576307 C11.8732134,-0.0397430489 11.6800472,0.00783802742 11.5668391,0.150178027 L0.0876981679,14.6664386 C-0.00809328422,14.7874074 -0.0270932417,14.953538 0.0390107769,15.0934586 C0.104323131,15.2333792 0.243260319,15.3224929 0.395655811,15.3224929 L8.24065907,15.3224929 L6.73412078,24.5302377 C6.70443335,24.7112877 6.79824564,24.8895151 6.9625161,24.9645158 C7.01516182,24.9887096 7.07018253,25 7.1248074,25 C7.24197381,25 7.35636939,24.9471769 7.43316088,24.8495954 L18.9123018,10.3333348 C19.0080933,10.212366 19.0270932,10.0462355 18.9609892,9.90631483 C18.895281,9.76639421 18.7563438,9.67728049 18.6039484,9.67728049 Z" id="Path"></path>
        </g>
    </g>
</svg>

<svg xmlns="http://www.w3.org/2000/svg" viewBox="0 0 93 25">
  <defs/>
  <g fill="#FFF" fill-rule="nonzero">
    <path d="M30.4 19l1.3-4.2h5.8l1.2 4.2H43L37.7 3.2c-.3-.9-.5-1-1.4-1h-3.2c-.9 0-1 .1-1.4 1L26.5 19h4zm6.2-7.1h-4l1.8-6.2h.3l2 6.2zM52.7 19c1.3 0 2-.2 2.4-.8.7-.7.9-1.6.9-4.2h-3.4c0 1.4 0 1.7-.2 1.9-.2.1-.4.2-1 .2h-2c-.6 0-.8 0-1-.2-.2-.2-.3-.6-.3-3.2v-.3c0-2.8.1-3.3.3-3.5.2-.1.4-.2 1-.2h2c.6 0 .8 0 1 .2l.2 1.7H56c0-2.4-.2-3.4-1-4-.4-.6-1-.8-2.3-.8h-4.4c-1.4 0-2 .2-2.6.8-.9.9-1.2 2-1.2 5.5v.3c0 3.7.3 5 1.2 5.8.5.6 1.2.8 2.6.8h4.4zm9.7 0V9.3c.8-.4 1.4-.6 2-.6h.6c.7 0 1 .1 1.1.3.2.2.3.5.3 1.1V19h3.7V9.2c.8-.4 1.4-.5 2-.5h.6c.6 0 .9.1 1 .3.3.2.4.5.4 1.1V19h3.7V9.7c0-2-.2-2.7-.8-3.2-.5-.5-1.2-.7-2.3-.7h-1.2c-1.2 0-1.8.2-3.6 1.9 0-.6-.3-.9-.6-1.2-.5-.5-1.2-.7-2.3-.7h-1.2c-1.2 0-1.7.2-3.4 1.8V5.8h-3.7V19h3.7zm27 0c1.3 0 1.9-.4 2.3-.8.6-.6.8-1.6.9-3.6h-3.4c0 1-.1 1.3-.2 1.4-.2.2-.4.3-1.1.3h-2.2c-.7 0-1 0-1.2-.3-.2-.1-.3-.7-.3-2.8H92c.5 0 .6-.1.6-.5v-.4c0-3.8-.2-4.8-1.1-5.7-.6-.6-1.3-.8-2.6-.8h-4.5c-1.3 0-2 .2-2.6.8-.8.9-1.2 1.9-1.2 5.5v.3c0 3.9.3 5 1.2 5.8.6.6 1.3.8 2.6.8h5zm-.3-7.8h-5c.1-1.9.2-2.3.4-2.4.2-.2.5-.3 1.2-.3h2c.7 0 1 0 1 .2.2.2.4.7.4 2.5zM18.6 9.7h-7.8L12.3.5c0-.2-.1-.4-.3-.5-.1 0-.3 0-.4.2L0 14.7c-.1 0-.1.3 0 .4 0 .1.1.2.3.2h7.8l-1.5 9.2c0 .2.1.4.3.5H7c.1 0 .3 0 .3-.2L19 10.3c.1 0 .1-.3 0-.4 0-.1-.1-.2-.3-.2z"/>
  </g>
</svg>
